icons/svg/32x32/time alt1/outline.svg

<svg xmlns="http://www.w3.org/2000/svg" width="32" height="32" viewBox="0 0 32 32">
  <path fill-rule="evenodd" d="M19.7998,20.5996 C20.1318,20.1586 20.0418,19.5316 19.5998,19.2006 L16.1308,16.5986 L17.9698,9.2426 C18.1048,8.7066 17.7788,8.1636 17.2418,8.0306 C16.7058,7.8936 16.1638,8.2216 16.0298,8.7576 L14.0298,16.7576 C13.9328,17.1476 14.0778,17.5586 14.4008,17.7996 L18.4008,20.7996 C18.5798,20.9346 18.7898,20.9996 18.9988,20.9996 C19.3038,20.9996 19.6038,20.8626 19.7998,20.5996 M15.9998,3.9996 C9.3728,3.9996 3.9998,9.3726 3.9998,15.9996 C3.9998,22.6266 9.3728,27.9996 15.9998,27.9996 C22.6268,27.9996 27.9998,22.6266 27.9998,15.9996 C27.9998,9.3726 22.6268,3.9996 15.9998,3.9996 M15.9998,5.9996 C21.5138,5.9996 25.9998,10.4866 25.9998,15.9996 C25.9998,21.5136 21.5138,25.9996 15.9998,25.9996 C10.4868,25.9996 5.9998,21.5136 5.9998,15.9996 C5.9998,10.4866 10.4868,5.9996 15.9998,5.9996"/>
</svg>

<svg width="32" height="32" fill="none" xmlns="http://www.w3.org/2000/svg">
  <path fill-rule="evenodd" clip-rule="evenodd" d="M19.8 20.6a.998.998 0 00-.2-1.4l-3.47-2.6 1.84-7.356a.997.997 0 00-.728-1.212.996.996 0 00-1.212.727l-2 8a.999.999 0 00.37 1.042l4 3a.994.994 0 001.399-.2zM16 4C9.373 4 4 9.373 4 16s5.373 12 12 12 12-5.373 12-12S22.627 4 16 4zm0 2c5.514 0 10 4.487 10 10 0 5.514-4.486 10-10 10-5.513 0-10-4.486-10-10 0-5.513 4.487-10 10-10z" fill="#000"/>
</svg>
